!! Isochronous pitch passage.
!! Treble-line.
!! From Ravel, Daphnis et Chlo\o'e\(..', 1 measure before "207" ff.
!! First flutes.
!! Irregular meter
**kern	**metpos
*M5/4	*M5/4
*tb8	*tb8
=206	=
8r	1
8r	4
8r	4
8r	3
8r	4
8r	4
8ffn	3
8ggn	4
8aa-	4
=206b	=
8bb-	2
8cccn	4
8ddd	4
8eee	3
8fffn	4
8gggn	4
=207	=
8fff	1
8fff	4
8fff	4
8fff	3
8fff	4
8fff	4
8fff	3
8fff	4
8fff	4
=207b	=
8fff	2
8gggn	4
8fff	4
8ddd-	3
8eee-	4
8eeen	4
=208	=
8fffn	1
8r	4
8r	4
8fn	3
8f	4
8gn	4
8a-	3
8a-	4
8b-	4
=208b	=
8fn	2
8f	4
8en	4
8gn	3
8r	4
8r	4
=209	=
8ffn	1
8ff	4
8ggn	4
8aa-	3
8aa-	4
8bb-	4
8ff	3
8ff	4
8ee	4
=209b	=
8ggn	2
8r	4
8r	4
8r	3
8r	4
8r	4
=210	=
8r	1
8r	4
8r	4
8r	3
8r	4
8r	4
8ff	3
8ggn	4
8aa-	4
=210b	=
8bb-	2
8cccn	4
8ddd-	4
8eee-	3
8fffn	4
8gggn	4
=211	=
8fff	1
8fff	4
8fff	4
8fff	3
8gggn	4
8fff	4
8ddd-	3
8eee-	4
8fff	4
=211b	=
8gggn	2
8aaa-	4
8ggg	4
8eeen	3
8fff	4
8ggg	4
=212	=
8fffn	1
8fff	4
8fff	4
8fff	3
8gggn	4
8fff	4
8ddd-	3
8eee-	4
8fff-	4
=212b	=
8gggn	2
8aaa-	4
8ggg	4
8eeen	3
8fff	4
8ggg	4
=213	=
8aaa-	1
8aaa-	4
8aaa-	4
8aaa-	3
8bbb-	4
8aaa-	4
8fffn	3
8gggn	4
8aaa-	4
=213b	=
8ggg	2
8aaa-	4
8ggg	4
8ddd	3
8fff	4
8ggg	4
=214	=
8aaa-	1
8aaa-	4
8aaa-	4
8aaa-	3
8bbb-	4
8aaa-	4
8fffn	3
8gggn	4
8aaa-	4
=214b	=
8ggg	2
8aaa-	4
8ggg	4
8ddd	3
8fff	4
8ggg	4
=215	=
8ggg#	1
8ggg#	3
8ggg#	3
8ggg#	2
8aaa#	3
8ggg#	3
8ddd#	2
8eee#	3
8fff##	3
=216	=
8ggg#	1
8ggg#	3
8ggg#	3
8ggg#	2
8aaa#	3
8ggg#	3
8ddd#	2
8eee#	3
8fff##	3
=217	=
*-	*-
